school/img/country/KN.svg

<svg width="13" height="12" viewBox="0 0 13 12" fill="none" xmlns="http://www.w3.org/2000/svg">
<rect width="13" height="12" rx="2" fill="white"/>
<mask id="mask0" mask-type="alpha" maskUnits="userSpaceOnUse" x="0" y="0" width="13" height="12">
<rect width="13" height="12" rx="2" fill="white"/>
</mask>
<g mask="url(#mask0)">
<path fill-rule="evenodd" clip-rule="evenodd" d="M0 8L13 0H0V8Z" fill="#1EC160"/>
<path fill-rule="evenodd" clip-rule="evenodd" d="M0 12H13V4L0 12Z" fill="#DF2A40"/>
<path fill-rule="evenodd" clip-rule="evenodd" d="M0.363906 15.2L15.5884 2.9059L12.636 -3.20004L-2.5885 9.09408L0.363906 15.2V15.2Z" fill="#FFD956"/>
<path fill-rule="evenodd" clip-rule="evenodd" d="M-0.292147 13.8431L14.9323 1.54902L13.2921 -1.84317L-1.93237 10.451L-0.292147 13.8431V13.8431Z" fill="#262626"/>
<path fill-rule="evenodd" clip-rule="evenodd" d="M9.42938 4.67847L8.99044 5.57688L8.70563 4.58016L7.90881 4.31831L8.55433 3.66026L8.50081 2.60001L9.18456 3.19003L9.9483 2.79661L9.72537 3.81932L10.2509 4.63643L9.42938 4.67847V4.67847Z" fill="white"/>
<path fill-rule="evenodd" clip-rule="evenodd" d="M4.47698 8.55847L4.03804 9.45689L3.75324 8.46017L2.95642 8.19831L3.60193 7.54026L3.54841 6.48001L4.23217 7.07003L4.99591 6.67662L4.77298 7.69932L5.29852 8.51643L4.47698 8.55847V8.55847Z" fill="white"/>
</g>
</svg>

<svg width="13" height="12" fill="none" xmlns="http://www.w3.org/2000/svg"><rect width="13" height="12" rx="2" fill="#fff"/><mask id="a" maskUnits="userSpaceOnUse" x="0" y="0" width="13" height="12"><rect width="13" height="12" rx="2" fill="#fff"/></mask><g mask="url(#a)" fill-rule="evenodd" clip-rule="evenodd"><path d="M0 8l13-8H0v8z" fill="#1EC160"/><path d="M0 12h13V4L0 12z" fill="#DF2A40"/><path d="M.364 15.2L15.588 2.906 12.636-3.2-2.588 9.094.364 15.2z" fill="#FFD956"/><path d="M-.292 13.843L14.932 1.55l-1.64-3.392L-1.932 10.45l1.64 3.392z" fill="#262626"/><path d="M9.43 4.678l-.44.899-.284-.997-.797-.262.645-.658-.053-1.06.684.59.763-.393-.223 1.022.526.817-.822.042zm-4.953 3.88l-.439.899-.285-.997-.797-.262.646-.658-.054-1.06.684.59.764-.393-.223 1.022.526.817-.822.042z" fill="#fff"/></g></svg>
